X: 8
T: Noel Hill's Reel
T: Micho Russell's Reel
T: The Sister's Reel
T: Mary McMahon
D: De Dannan's "Hibernian Rhapsody"
R: Reel
Z: Adrian Scahill
M: 4/4
L: 1/8
K: D
fAeA dAAG | FGAB =cAGB | Add2 efed | (3Bcd ef g2ag |
fdec dAAG | FGAB =cAGB | Add2 efed | cAGE D4 :|
f3g a2fa | abag fede | f3g a2fa | bfaf g2ag |
f3g a2fa | abag feda | bfaf gfed | (3Bcd ef g2ag :|
